SVG-Logos/AI, ML, DS/weights & biases logo.svg

<svg width="469" height="120" viewBox="0 0 469 120" fill="none" xmlns="http://www.w3.org/2000/svg">
<path d="M-7.05719e-05 38.76C-7.05719e-05 45.61 5.55294 51.163 12.4029 51.163C19.2529 51.163 24.8059 45.61 24.8059 38.76C24.8059 31.91 19.2529 26.357 12.4029 26.357C5.55294 26.357 -7.05719e-05 31.91 -7.05719e-05 38.76Z" fill="#FFCC33"/>
<path d="M-7.05719e-05 100.775C-7.05719e-05 107.625 5.55294 113.178 12.4029 113.178C19.2529 113.178 24.8059 107.625 24.8059 100.775C24.8059 93.9249 19.2529 88.3719 12.4029 88.3719C5.55294 88.3719 -7.05719e-05 93.9249 -7.05719e-05 100.775Z" fill="#FFCC33"/>
<path d="M4.65104 69.7681C4.65104 74.0494 8.12173 77.5201 12.403 77.5201C16.6843 77.5201 20.155 74.0494 20.155 69.7681C20.155 65.4868 16.6843 62.0161 12.403 62.0161C8.12173 62.0161 4.65104 65.4868 4.65104 69.7681Z" fill="#FFCC33"/>
<path d="M4.65104 7.75199C4.65104 12.0333 8.12173 15.504 12.403 15.504C16.6843 15.504 20.155 12.0333 20.155 7.75199C20.155 3.47069 16.6843 0 12.403 0C8.12173 0 4.65104 3.47069 4.65104 7.75199Z" fill="#FFCC33"/>
<path d="M47.5967 81.24C47.5967 88.0899 53.1497 93.643 59.9997 93.643C66.8497 93.643 72.4027 88.0899 72.4027 81.24C72.4027 74.39 66.8497 68.837 59.9997 68.837C53.1497 68.837 47.5967 74.39 47.5967 81.24Z" fill="#FFCC33"/>
<path d="M52.2478 112.248C52.2478 116.529 55.7185 120 59.9998 120C64.2811 120 67.7518 116.529 67.7518 112.248C67.7518 107.967 64.2811 104.496 59.9998 104.496C55.7185 104.496 52.2478 107.967 52.2478 112.248Z" fill="#FFCC33"/>
<path d="M52.2478 50.2329C52.2478 54.5142 55.7185 57.9849 59.9998 57.9849C64.2811 57.9849 67.7518 54.5142 67.7518 50.2329C67.7518 45.9516 64.2811 42.4809 59.9998 42.4809C55.7185 42.4809 52.2478 45.9516 52.2478 50.2329Z" fill="#FFCC33"/>
<path d="M52.2478 19.2249C52.2478 23.5062 55.7185 26.9769 59.9998 26.9769C64.2811 26.9769 67.7518 23.5062 67.7518 19.2249C67.7518 14.9436 64.2811 11.4729 59.9998 11.4729C55.7185 11.4729 52.2478 14.9436 52.2478 19.2249Z" fill="#FFCC33"/>
<path d="M95.1938 38.76C95.1938 45.61 100.747 51.163 107.597 51.163C114.447 51.163 120 45.61 120 38.76C120 31.91 114.447 26.357 107.597 26.357C100.747 26.357 95.1938 31.91 95.1938 38.76Z" fill="#FFCC33"/>
<path d="M99.8449 7.75199C99.8449 12.0333 103.316 15.504 107.597 15.504C111.878 15.504 115.349 12.0333 115.349 7.75199C115.349 3.47069 111.878 0 107.597 0C103.316 0 99.8449 3.47069 99.8449 7.75199Z" fill="#FFCC33"/>
<path d="M99.8449 69.7681C99.8449 74.0494 103.316 77.5201 107.597 77.5201C111.878 77.5201 115.349 74.0494 115.349 69.7681C115.349 65.4868 111.878 62.0161 107.597 62.0161C103.316 62.0161 99.8449 65.4868 99.8449 69.7681Z" fill="#FFCC33"/>
<path d="M99.8449 100.775C99.8449 105.056 103.316 108.527 107.597 108.527C111.878 108.527 115.349 105.056 115.349 100.775C115.349 96.4937 111.878 93.023 107.597 93.023C103.316 93.023 99.8449 96.4937 99.8449 100.775Z" fill="#FFCC33"/>
<path d="M242.107 109.139H248.276L272.523 19.7561L284.574 18.0344V12.1521H252.007V18.0344L265.062 19.8996L246.842 86.1836L225.465 19.7561L239.955 18.0344V12.1521H200.932V18.0344L215.279 19.7561L193.471 85.6098L175.824 19.6126L189.024 18.0344V12.1521H150V18.0344L161.908 19.4692L187.732 109.139H193.902L217.287 34.6772L242.107 109.139Z" fill="black"/>
<path d="M312.94 44.5768C307.631 37.977 306.483 33.5294 306.483 28.3644C306.483 20.7604 312.222 15.0215 319.539 15.0215C326.569 15.0215 332.021 20.1865 332.021 28.5079C332.021 36.8293 325.708 43.142 316.813 49.3113C315.522 47.8766 314.231 46.2984 312.94 44.5768ZM377.214 108.565L377.788 102.253L363.871 100.387C359.424 95.7963 355.693 91.6356 352.107 87.9053C358.706 78.0057 363.728 67.3888 367.028 54.3328L377.931 52.3242V46.5854H348.807V52.3242L360.141 54.1894C357.559 65.5237 353.541 74.8494 348.233 83.7446C342.638 77.7188 337.473 72.2669 331.734 65.9541C326.713 60.5021 323.269 56.6284 320.257 53.1851C334.89 45.2941 341.49 38.264 341.49 28.3644C341.49 17.604 333.886 10 319.683 10C306.197 10 296.154 17.7475 296.154 30.373C296.154 37.977 298.88 45.2941 306.053 53.472C306.197 53.759 306.483 53.9024 306.627 54.1894C292.28 61.363 284.963 70.9756 284.963 83.8881C284.963 98.3788 297.301 110 315.235 110C329.008 110 338.19 104.692 344.503 97.8049C346.081 99.67 347.803 101.392 349.524 103.4C354.259 108.278 358.706 110 366.31 110C370.04 110 372.91 109.57 377.214 108.565ZM325.708 76.7145C330.586 82.1664 335.177 87.3314 340.342 93.2138C334.89 98.0918 327.143 100.818 319.109 100.818C305.192 100.818 297.445 90.4878 297.445 80.0143C297.445 72.8407 300.171 64.2324 310.07 58.2066C314.805 63.6585 319.252 68.8235 325.708 76.7145Z" fill="black"/>
<path d="M404.147 63.6585C404.147 76.1406 404.147 88.6227 403.86 100.674L390.661 102.253V108.135H430.115C457.661 108.135 468.421 94.9354 468.421 81.8795C468.421 70.2583 460.387 60.9326 441.305 58.2066C457.23 54.9067 463.543 45.7245 463.543 35.538C463.543 21.9082 452.209 12.1521 432.267 12.1521H390.661V18.0344L403.86 19.6126C404.147 31.9512 404.147 44.2898 404.147 56.6284V63.6585ZM425.667 61.7934C445.466 61.7934 454.074 68.5366 454.074 81.8795C454.074 94.505 445.179 101.392 426.815 101.392H418.063C417.776 89.1966 417.776 76.858 417.776 61.7934H425.667ZM427.963 18.7518C442.597 18.7518 450.057 23.4864 450.057 36.5423C450.057 49.5983 442.597 55.1937 425.237 55.1937H417.776C417.776 43.8594 417.776 31.0904 418.063 18.7518H427.963Z" fill="black"/>
</svg>

<svg xmlns="http://www.w3.org/2000/svg" fill="none" viewBox="0 0 469 120"><path fill="#FC3" d="M0 38.76c0 6.85 5.553 12.403 12.403 12.403 6.85 0 12.403-5.553 12.403-12.403 0-6.85-5.553-12.403-12.403-12.403C5.553 26.357 0 31.91 0 38.76ZM0 100.775c0 6.85 5.553 12.403 12.403 12.403 6.85 0 12.403-5.553 12.403-12.403 0-6.85-5.553-12.403-12.403-12.403C5.553 88.372 0 93.925 0 100.775ZM4.651 69.768a7.752 7.752 0 1 0 15.504 0 7.752 7.752 0 0 0-15.504 0ZM4.651 7.752a7.752 7.752 0 1 0 15.504 0 7.752 7.752 0 0 0-15.504 0ZM47.597 81.24c0 6.85 5.553 12.403 12.403 12.403 6.85 0 12.403-5.553 12.403-12.403 0-6.85-5.553-12.403-12.403-12.403-6.85 0-12.403 5.553-12.403 12.403ZM52.248 112.248a7.752 7.752 0 1 0 15.504 0 7.752 7.752 0 0 0-15.504 0ZM52.248 50.233a7.752 7.752 0 1 0 15.504 0 7.752 7.752 0 0 0-15.504 0ZM52.248 19.225a7.752 7.752 0 1 0 15.504 0 7.752 7.752 0 0 0-15.504 0ZM95.194 38.76c0 6.85 5.553 12.403 12.403 12.403 6.85 0 12.403-5.553 12.403-12.403 0-6.85-5.553-12.403-12.403-12.403-6.85 0-12.403 5.553-12.403 12.403ZM99.845 7.752a7.752 7.752 0 1 0 15.504 0 7.752 7.752 0 0 0-15.504 0ZM99.845 69.768a7.752 7.752 0 1 0 15.504 0 7.752 7.752 0 0 0-15.504 0ZM99.845 100.775a7.752 7.752 0 1 0 15.505-.001 7.752 7.752 0 0 0-15.505.001Z"/><path fill="#000" d="M242.107 109.139h6.169l24.247-89.383 12.051-1.722v-5.882h-32.567v5.882l13.055 1.866-18.22 66.284-21.377-66.428 14.49-1.722v-5.882h-39.023v5.882l14.347 1.722-21.808 65.854-17.647-65.997 13.2-1.579v-5.882H150v5.882l11.908 1.435 25.824 89.67h6.17l23.385-74.462 24.82 74.462ZM312.94 44.577c-5.309-6.6-6.457-11.048-6.457-16.213 0-7.604 5.739-13.343 13.056-13.343 7.03 0 12.482 5.165 12.482 13.487 0 8.321-6.313 14.634-15.208 20.803a68.64 68.64 0 0 1-3.873-4.734Zm64.274 63.988.574-6.312-13.917-1.866c-4.447-4.59-8.178-8.751-11.764-12.482 6.599-9.9 11.621-20.516 14.921-33.572l10.903-2.009v-5.739h-29.124v5.74l11.334 1.864c-2.582 11.335-6.6 20.66-11.908 29.556-5.595-6.026-10.76-11.478-16.499-17.79a639.118 639.118 0 0 1-11.477-12.77c14.633-7.89 21.233-14.921 21.233-24.82 0-10.761-7.604-18.365-21.807-18.365-13.486 0-23.529 7.747-23.529 20.373 0 7.604 2.726 14.921 9.899 23.099.144.287.43.43.574.717-14.347 7.174-21.664 16.787-21.664 29.7 0 14.49 12.338 26.111 30.272 26.111 13.773 0 22.955-5.308 29.268-12.195 1.578 1.865 3.3 3.587 5.021 5.595 4.735 4.878 9.182 6.6 16.786 6.6 3.73 0 6.6-.43 10.904-1.435Zm-51.506-31.85a2284.547 2284.547 0 0 1 14.634 16.499c-5.452 4.878-13.199 7.604-21.233 7.604-13.917 0-21.664-10.33-21.664-20.804 0-7.173 2.726-15.782 12.625-21.807 4.735 5.451 9.182 10.616 15.638 18.508ZM404.147 63.658c0 12.483 0 24.965-.287 37.016l-13.199 1.579v5.882h39.454c27.546 0 38.306-13.2 38.306-26.256 0-11.62-8.034-20.946-27.116-23.672 15.925-3.3 22.238-12.483 22.238-22.669 0-13.63-11.334-23.386-31.276-23.386h-41.606v5.882l13.199 1.579c.287 12.338.287 24.677.287 37.015v7.03Zm21.52-1.865c19.799 0 28.407 6.744 28.407 20.086 0 12.626-8.895 19.513-27.259 19.513h-8.752c-.287-12.195-.287-24.534-.287-39.599h7.891Zm2.296-43.041c14.634 0 22.094 4.734 22.094 17.79s-7.46 18.652-24.82 18.652h-7.461c0-11.335 0-24.104.287-36.442h9.9Z"/></svg>
